Sources/FrostedUI/Resources/Icons.xcassets/monitorSize32.imageset/monitor-size-32.svg

<svg
  width="32"
  height="32"
  viewBox="0 0 32 32"
  fill="none"
  xmlns="http://www.w3.org/2000/svg"
  data-fui-icon="true"
>
  <path
    d="M6.33334 23H25.6667C27.1395 23 28.3333 21.8061 28.3333 20.3333V7.66667C28.3333 6.19391 27.1395 5 25.6667 5H6.33334C4.86058 5 3.66667 6.19391 3.66667 7.66667V20.3333C3.66667 21.8061 4.86058 23 6.33334 23zM3.95833 18.7917H28.0417M9.75 28.4167L22.25 28.4167M12.2708 23V28.4167M19.7292 23V28.4167"
    stroke="currentColor"
    stroke-width="1.5"
    stroke-linecap="round"
    stroke-linejoin="round"
  />
</svg>

<svg xmlns="http://www.w3.org/2000/svg" width="32" height="32" fill="none" data-fui-icon="true" viewBox="0 0 32 32"><path stroke="currentColor" stroke-linecap="round" stroke-linejoin="round" stroke-width="1.5" d="M6.333 23h19.334a2.667 2.667 0 0 0 2.666-2.667V7.667A2.667 2.667 0 0 0 25.667 5H6.333a2.667 2.667 0 0 0-2.666 2.667v12.666A2.667 2.667 0 0 0 6.333 23m-2.375-4.208h24.084M9.75 28.417h12.5M12.27 23v5.417M19.73 23v5.417"/></svg>
